X: 17183
T: Henri The Lobster
R: reel
M: 4/4
K: Emajor
|:Beee gebe|a2 ag aece|Bef g2 efg|bffg fece|Beee gebe|
a3 g aece|1 bffg fece|Bcef e2 ec:|2 bee aee ge|fge f2 ece||
|:a3 g aece|ceee fece|ceee fece|bffg fece|
[1a3 g aece|ceee fece|bffg fece|Bceg fefg:|
[2 Beee gebe|a3 g aece|bee aee ge|fge f2 ece||

